icon/pk/expand-left-and-right.svg

<svg width="48" height="48" fill="none" xmlns="http://www.w3.org/2000/svg"><path d="M42 6v36M16 20l-4 4 4 4m16-8 4 4-4 4M24 6v36M6 6v36" stroke="#000" stroke-width="4" stroke-linecap="round" stroke-linejoin="round"/></svg>

<svg viewBox="0 0 48 48" fill="none" xmlns="http://www.w3.org/2000/svg" height="1em" width="1em">
  <path d="M42 6V42M16 20L12 24L16 28M32 20L36 24L32 28M24 6L24 42M6 6L6 42" stroke="black" stroke-width="4" stroke-linecap="round" stroke-linejoin="round"/>
</svg>
